svg/fluentui-system-icons/ic_fluent_apps_list_20_regular.svg

<svg width="20" height="20" viewBox="0 0 20 20" fill="none" xmlns="http://www.w3.org/2000/svg">
<path d="M2 3.5C2 2.67157 2.67157 2 3.5 2H4.5C5.32843 2 6 2.67157 6 3.5V4.5C6 5.32843 5.32843 6 4.5 6H3.5C2.67157 6 2 5.32843 2 4.5V3.5ZM3.5 3C3.22386 3 3 3.22386 3 3.5V4.5C3 4.77614 3.22386 5 3.5 5H4.5C4.77614 5 5 4.77614 5 4.5V3.5C5 3.22386 4.77614 3 4.5 3H3.5ZM2 9.5C2 8.67157 2.67157 8 3.5 8H4.5C5.32843 8 6 8.67157 6 9.5V10.5C6 11.3284 5.32843 12 4.5 12H3.5C2.67157 12 2 11.3284 2 10.5V9.5ZM3.5 9C3.22386 9 3 9.22386 3 9.5V10.5C3 10.7761 3.22386 11 3.5 11H4.5C4.77614 11 5 10.7761 5 10.5V9.5C5 9.22386 4.77614 9 4.5 9H3.5ZM2 15.5C2 14.6716 2.67157 14 3.5 14H4.5C5.32843 14 6 14.6716 6 15.5V16.5C6 17.3284 5.32843 18 4.5 18H3.5C2.67157 18 2 17.3284 2 16.5V15.5ZM3.5 15C3.22386 15 3 15.2239 3 15.5V16.5C3 16.7761 3.22386 17 3.5 17H4.5C4.77614 17 5 16.7761 5 16.5V15.5C5 15.2239 4.77614 15 4.5 15H3.5ZM8 4.5C8 4.22386 8.22386 4 8.5 4H17.5C17.7761 4 18 4.22386 18 4.5C18 4.77614 17.7761 5 17.5 5H8.5C8.22386 5 8 4.77614 8 4.5ZM8 10.5C8 10.2239 8.22386 10 8.5 10H17.5C17.7761 10 18 10.2239 18 10.5C18 10.7761 17.7761 11 17.5 11H8.5C8.22386 11 8 10.7761 8 10.5ZM8 16.5C8 16.2239 8.22386 16 8.5 16H17.5C17.7761 16 18 16.2239 18 16.5C18 16.7761 17.7761 17 17.5 17H8.5C8.22386 17 8 16.7761 8 16.5Z" fill="#212121"/>
</svg>

<svg xmlns="http://www.w3.org/2000/svg" width="20" height="20"><path d="M2 3.5A1.5 1.5 0 0 1 3.5 2h1A1.5 1.5 0 0 1 6 3.5v1A1.5 1.5 0 0 1 4.5 6h-1A1.5 1.5 0 0 1 2 4.5v-1ZM3.5 3a.5.5 0 0 0-.5.5v1a.5.5 0 0 0 .5.5h1a.5.5 0 0 0 .5-.5v-1a.5.5 0 0 0-.5-.5h-1ZM2 9.5A1.5 1.5 0 0 1 3.5 8h1A1.5 1.5 0 0 1 6 9.5v1A1.5 1.5 0 0 1 4.5 12h-1A1.5 1.5 0 0 1 2 10.5v-1ZM3.5 9a.5.5 0 0 0-.5.5v1a.5.5 0 0 0 .5.5h1a.5.5 0 0 0 .5-.5v-1a.5.5 0 0 0-.5-.5h-1ZM2 15.5A1.5 1.5 0 0 1 3.5 14h1A1.5 1.5 0 0 1 6 15.5v1A1.5 1.5 0 0 1 4.5 18h-1A1.5 1.5 0 0 1 2 16.5v-1Zm1.5-.5a.5.5 0 0 0-.5.5v1a.5.5 0 0 0 .5.5h1a.5.5 0 0 0 .5-.5v-1a.5.5 0 0 0-.5-.5h-1ZM8 4.5a.5.5 0 0 1 .5-.5h9a.5.5 0 0 1 0 1h-9a.5.5 0 0 1-.5-.5Zm0 6a.5.5 0 0 1 .5-.5h9a.5.5 0 0 1 0 1h-9a.5.5 0 0 1-.5-.5Zm0 6a.5.5 0 0 1 .5-.5h9a.5.5 0 0 1 0 1h-9a.5.5 0 0 1-.5-.5Z"/></svg>
